X:1
T:Cailleach do mhaireas me  "Old Hag You Have Killed Me"
M:6/8
L:1/8
Q:80
C:arr. Kent Hiestand
S:Jig
K:HP
{g}ed|:
{g}cB{G}A{g}fge|
a{g}a{g}a{g}afd|  !
{g}ede{g}efd|
{gef}e2{A}e{g}efd|
{gcd}c2{G}A{g}fge|  !
a{g}a{g}a{g}afc|
{g}d{e}d{c}d{g}dge|
{g}c{g}d{c}d{gdG}d3:| |:  !
{gfg}f2{e}f{a}gfg|
afd{g}cAG|
{g}ABG{g}ABG|  !
{g}A{d}A{e}A{d}ABd|
{gfg}f2{e}f{a}gfg|
afd{g}cAG|  !
{g}GcA{g}GcA|
{g}c{g}d{c}d{gdG}d3:|
M:6/8 |:  !
{g}c{d}c{e}c{g}fge|
aga{g}afd|
e{g}e{A}e{g}efd|  !
e{g}e{A}e{gef}e2{A}e|
{g}A{d}A{e}A{g}fge|
aga{g}afc|  !
{g}d{e}d{c}d{g}dge|
{g}c{g}d{c}d{gdG}d3:| |:
{g}fdf{a}gdg|  !
afd{g}cAG|
{g}A{d}A{e}A{g}ABG|
{g}ABG{d}ABd|  !
{g}fdf{a}gdg|
afd{g}cAG|
{g}A{d}A{e}A{g}GcA|  !
{g}c{g}d{c}d{gdG}d3:|
M:6/8 |:
{gcd}c2{G}A{g}fge|  !
{ag}a2{GdG}a{g}afd|
{gef}e2{A}e{g}efd|
e{g}e{A}e{g}efd|  !
{g}cB{G}A{g}fge|
{ag}a2{GdG}a{g}afc|
{g}d{e}d{c}d{g}dge|  !
{g}c{g}d{c}d{gdG}d3:| |:
f{g}f{e}fg{a}g{f}g|
afa{g}afd|  !
{g}A{d}A{e}A{g}ABG|
{g}A{d}A{e}A{d}ABd|
f{g}f{e}fg{a}g{f}g|  !
afa{g}afc|
{g}A{d}A{e}A{g}GcA|
{g}c{g}d{c}d{gdG}d3:|  !

